;FLAVOR:RepRap
;TIME:9216
;Filament used: 4.15843m
;Layer height: 0.1
;Generated with Cura_SteamEngine 2.5.0
G21 ; set units to millimeters
G90 ; use absolute positioning
M82 ; absolute extrusion mode
G28 W ; home all without mesh bed level
G80 ; mesh bed leveling
M104 S200 ; set extruder temp
M140 S60 ; set bed temp
M190 S60 ; wait for bed temp
M109 S200 ; wait for extruder temp
G92 E0.0 ; reset extruder distance position
G1 Y-3.0 F1000.0 ; go outside print area
G1 X60.0 E9.0 F1000.0 ; intro line
G1 X100.0 E21.5 F1000.0 ; intro line
G92 E0.0 ; reset extruder distance position
;LAYER_COUNT:100
;LAYER:0
M107
G0 F3600 X95.478 Y78.933 Z0.15
;TYPE:SKIRT
G1 F1800 X95.69 Y78.689 E0.00806
G1 X96.805 Y77.514 E0.04847
G1 X96.973 Y77.348 E0.05436
G1 X100.175 Y74.389 E0.16312
G1 X100.578 Y74.067 E0.17599
G1 X104.448 Y71.406 E0.29314
G1 X104.719 Y71.237 E0.30111
G1 X106.16 Y70.424 E0.34238
G1 X106.374 Y70.312 E0.34841
G1 X110.31 Y68.427 E0.45727
G1 X110.792 Y68.238 E0.47019
G1 X115.332 Y66.82 E0.58883
G1 X115.646 Y66.737 E0.59693
G1 X117.153 Y66.412 E0.63539
G1 X117.383 Y66.37 E0.64122
G1 X121.75 Y65.721 E0.75135
G1 X122.266 Y65.682 E0.76426
G1 X126.984 Y65.665 E0.88195
G1 X127.302 Y65.678 E0.88989
G1 X128.867 Y65.811 E0.92907
G1 X129.105 Y65.839 E0.93505
G1 X133.455 Y66.503 E1.04482
G1 X133.961 Y66.618 E1.05776
G1 X138.486 Y67.997 E1.17576
G1 X138.789 Y68.105 E1.18379
G1 X140.267 Y68.704 E1.22357
G1 X140.483 Y68.8 E1.22947
G1 X144.427 Y70.709 E1.33877
G1 X144.876 Y70.967 E1.35169
G1 X148.768 Y73.599 E1.46889
G1 X149.024 Y73.789 E1.47684
G1 X150.3 Y74.828 E1.51789
G1 X150.482 Y74.987 E1.52392
G1 X153.675 Y77.964 E1.63282
G1 X154.026 Y78.341 E1.64567
G1 X156.972 Y82.005 E1.76294
G1 X157.16 Y82.263 E1.77091
G1 X158.057 Y83.607 E1.81121
G1 X158.184 Y83.811 E1.81721
G1 X160.368 Y87.61 E1.92652
G1 X160.593 Y88.076 E1.93943
G1 X162.319 Y92.425 E2.05615
G1 X162.422 Y92.721 E2.06396
G1 X162.897 Y94.309 E2.10531
G1 X162.959 Y94.547 E2.11145
G1 X163.924 Y98.817 E2.22065
G1 X164.002 Y99.328 E2.23354
G1 X164.369 Y103.987 E2.35012
G1 X164.38 Y104.302 E2.35798
G1 X164.365 Y105.97 E2.39959
G1 X164.354 Y106.215 E2.40571
G1 X164.019 Y110.55 E2.51417
G1 X163.943 Y111.06 E2.52703
G1 X162.915 Y115.649 E2.64434
G1 X162.831 Y115.957 E2.65231
G1 X162.332 Y117.52 E2.69324
G1 X162.251 Y117.748 E2.69927
G1 X160.644 Y121.815 E2.80836
G1 X160.421 Y122.28 E2.82122
G1 X158.088 Y126.357 E2.93839
G1 X157.917 Y126.627 E2.94637
G1 X156.983 Y127.968 E2.98713
G1 X156.839 Y128.16 E2.99312
G1 X154.11 Y131.569 E3.10205
G1 X153.758 Y131.949 E3.11497
G1 X150.311 Y135.171 E3.23267
G1 X150.067 Y135.379 E3.24067
G1 X148.78 Y136.383 E3.28139
G1 X148.588 Y136.524 E3.28733
G1 X144.984 Y138.97 E3.39598
G1 X144.537 Y139.228 E3.40886
G1 X140.287 Y141.295 E3.52675
G1 X139.998 Y141.421 E3.53461
G1 X138.544 Y141.977 E3.57344
G1 X138.312 Y142.056 E3.57956
G1 X134.087 Y143.35 E3.68978
G1 X133.583 Y143.466 E3.70268
G1 X128.865 Y144.195 E3.82177
G1 X128.538 Y144.23 E3.82997
G1 X126.941 Y144.329 E3.86989
G1 X126.71 Y144.336 E3.87565
G1 X122.372 Y144.326 E3.98386
G1 X121.857 Y144.288 E3.99675
G1 X117.167 Y143.599 E4.11499
G1 X116.852 Y143.538 E4.123
G1 X115.328 Y143.173 E4.16209
G1 X115.097 Y143.11 E4.16806
G1 X110.891 Y141.802 E4.27794
G1 X110.409 Y141.613 E4.29085
G1 X106.168 Y139.589 E4.40807
G1 X105.889 Y139.44 E4.41596
G1 X104.493 Y138.616 E4.4564
G1 X104.288 Y138.486 E4.46246
G1 X100.676 Y136.011 E4.57168
G1 X100.273 Y135.689 E4.58455
G1 X96.866 Y132.552 E4.70008
G1 X96.648 Y132.334 E4.70777
G1 X95.488 Y131.066 E4.75064
G1 X95.325 Y130.874 E4.75692
G1 X92.617 Y127.463 E4.86556
G1 X92.325 Y127.037 E4.87844
G1 X89.953 Y122.964 E4.99602
G1 X89.804 Y122.678 E5.00406
G1 X89.112 Y121.2 E5.04477
G1 X89.018 Y120.982 E5.0507
G1 X87.433 Y116.916 E5.15956
G1 X87.28 Y116.423 E5.17243
G1 X86.227 Y111.891 E5.2885
G1 X86.171 Y111.588 E5.29618
G1 X85.935 Y109.944 E5.33761
G1 X85.908 Y109.694 E5.34388
G1 X85.589 Y105.322 E5.45323
G1 X85.588 Y104.805 E5.46613
G1 X85.924 Y100.08 E5.58429
G1 X85.962 Y99.754 E5.59248
G1 X86.223 Y98.157 E5.63285
G1 X86.268 Y97.929 E5.63864
G1 X87.246 Y93.69 E5.74716
G1 X87.398 Y93.197 E5.76003
G1 X89.09 Y88.835 E5.87674
G1 X89.217 Y88.545 E5.88464
G1 X89.954 Y87.05 E5.92622
G1 X90.069 Y86.836 E5.93228
G1 X92.255 Y83.066 E6.04099
G1 X92.546 Y82.638 E6.0539
G1 X95.478 Y78.933 E6.17176
G0 F3600 X95.792 Y79.181
G1 F1800 X95.98 Y78.964 E6.17892
G1 X97.095 Y77.789 E6.21933
G1 X97.244 Y77.642 E6.22455
G1 X100.446 Y74.683 E6.33331
G1 X100.805 Y74.396 E6.34477
G1 X104.675 Y71.735 E6.46193
G1 X104.916 Y71.585 E6.46901
G1 X106.357 Y70.772 E6.51028
G1 X106.547 Y70.673 E6.51563
G1 X110.483 Y68.788 E6.62449
G1 X110.911 Y68.62 E6.63596
G1 X115.451 Y67.202 E6.7546
G1 X115.73 Y67.128 E6.76181
G1 X117.237 Y66.803 E6.80026
G1 X117.442 Y66.766 E6.80546
G1 X121.809 Y66.117 E6.91559
G1 X122.267 Y66.082 E6.92705
G1 X126.985 Y66.065 E7.04474
G1 X127.268 Y66.076 E7.0518
G1 X128.833 Y66.209 E7.09098
G1 X129.045 Y66.235 E7.09631
G1 X133.395 Y66.899 E7.20608
G1 X133.845 Y67.001 E7.21759
G1 X138.37 Y68.38 E7.33559
G1 X138.639 Y68.475 E7.34271
G1 X140.117 Y69.074 E7.38249
G1 X140.309 Y69.16 E7.38774
G1 X144.253 Y71.069 E7.49704
G1 X144.652 Y71.298 E7.50852
G1 X148.544 Y73.93 E7.62572
G1 X148.772 Y74.1 E7.63281
G1 X150.048 Y75.139 E7.67386
G1 X150.209 Y75.279 E7.67918
G1 X153.402 Y78.256 E7.78808
G1 X153.714 Y78.592 E7.79952
G1 X156.66 Y82.256 E7.9168
G1 X156.828 Y82.485 E7.92388
G1 X157.725 Y83.829 E7.96419
G1 X157.837 Y84.01 E7.9695
G1 X160.021 Y87.809 E8.07881
G1 X160.221 Y88.224 E8.0903
G1 X161.947 Y92.573 E8.20702
G1 X162.039 Y92.836 E8.21397
G1 X162.514 Y94.424 E8.25532
G1 X162.569 Y94.636 E8.26078
G1 X163.534 Y98.906 E8.36998
G1 X163.603 Y99.36 E8.38144
G1 X163.97 Y104.019 E8.49802
G1 X163.98 Y104.299 E8.50501
G1 X163.965 Y105.967 E8.54662
G1 X163.955 Y106.185 E8.55206
G1 X163.62 Y110.52 E8.66052
G1 X163.553 Y110.973 E8.67194
G1 X162.525 Y115.562 E8.78925
G1 X162.45 Y115.835 E8.79631
G1 X161.951 Y117.398 E8.83724
G1 X161.879 Y117.601 E8.84261
G1 X160.272 Y121.668 E8.9517
G1 X160.073 Y122.081 E8.96314
G1 X157.74 Y126.158 E9.08031
G1 X157.589 Y126.398 E9.08738
G1 X156.655 Y127.739 E9.12815
G1 X156.527 Y127.91 E9.13348
G1 X153.798 Y131.319 E9.24241
G1 X153.485 Y131.657 E9.2539
G1 X150.038 Y134.879 E9.3716
G1 X149.821 Y135.064 E9.37871
G1 X148.534 Y136.068 E9.41943
G1 X148.363 Y136.193 E9.42471
G1 X144.759 Y138.639 E9.53337
G1 X144.362 Y138.869 E9.54481
G1 X140.112 Y140.936 E9.6627
G1 X139.855 Y141.047 E9.66968
G1 X138.401 Y141.603 E9.70852
G1 X138.195 Y141.674 E9.71395
G1 X133.97 Y142.968 E9.82418
G1 X133.522 Y143.07 E9.83564
G1 X128.804 Y143.799 E9.95473
G1 X128.513 Y143.831 E9.96203
G1 X126.916 Y143.93 E10.00194
G1 X126.711 Y143.936 E10.00706
G1 X122.373 Y143.926 E10.11527
G1 X121.915 Y143.892 E10.12673
G1 X117.225 Y143.203 E10.24497
G1 X116.945 Y143.149 E10.25209
G1 X115.421 Y142.784 E10.29118
G1 X115.216 Y142.728 E10.29648
G1 X111.01 Y141.42 E10.40636
G1 X110.582 Y141.252 E10.41783
G1 X106.341 Y139.228 E10.53505
G1 X106.092 Y139.096 E10.54208
G1 X104.696 Y138.272 E10.58252
G1 X104.514 Y138.156 E10.5879
G1 X100.902 Y135.681 E10.69712
G1 X100.543 Y135.395 E10.70857
G1 X97.136 Y132.258 E10.8241
G1 X96.943 Y132.064 E10.83093
G1 X95.783 Y130.796 E10.8738
G1 X95.638 Y130.626 E10.87937
G1 X92.93 Y127.215 E10.98801
G1 X92.671 Y126.835 E10.99948
G1 X90.299 Y122.762 E11.11706
G1 X90.166 Y122.509 E11.12419
G1 X89.474 Y121.031 E11.1649
G1 X89.391 Y120.836 E11.17019
G1 X87.806 Y116.77 E11.27905
G1 X87.67 Y116.332 E11.29049
G1 X86.617 Y111.8 E11.40655
G1 X86.566 Y111.531 E11.41338
G1 X86.33 Y109.887 E11.45481
G1 X86.306 Y109.665 E11.46038
G1 X85.987 Y105.293 E11.56973
G1 X85.987 Y104.833 E11.5812
G1 X86.323 Y100.108 E11.69937
G1 X86.357 Y99.819 E11.70663
G1 X86.618 Y98.222 E11.74699
G1 X86.658 Y98.019 E11.75215
G1 X87.636 Y93.78 E11.86067
G1 X87.771 Y93.342 E11.87211
G1 X89.463 Y88.98 E11.98882
G1 X89.576 Y88.722 E11.99584
G1 X90.313 Y87.227 E12.03742
G1 X90.415 Y87.037 E12.0428
G1 X92.601 Y83.267 E12.15151
G1 X92.86 Y82.886 E12.163
G1 X95.792 Y79.181 E12.28086
G1 F2100 E11.48086
G0 F3600 X97.773 Y80.765
G0 X98.776 Y81.564
G0 X99.245 Y81.105
G0 X99.172 Y81.037
;TYPE:WALL-INNER
G1 F2100 E12.28086
G1 F1800 X103.037 Y77.452 E12.41236
G1 X107.384 Y74.486 E12.54364
G1 X112.126 Y72.204 E12.67491
G1 X117.154 Y70.652 E12.80617
G1 X122.393 Y69.864 E12.93833
G1 X127.628 Y69.865 E13.06892
G1 X132.847 Y70.651 E13.20057
G1 X137.874 Y72.204 E13.33182
G1 X142.615 Y74.486 E13.46307
G1 X146.963 Y77.452 E13.59437
G1 X150.828 Y81.037 E13.72587
G1 X154.112 Y85.155 E13.85726
G1 X156.743 Y89.714 E13.98856
G1 X158.666 Y94.612 E14.11982
G1 X159.839 Y99.753 E14.25136
G1 X160.234 Y105 E14.38262
G1 X159.839 Y110.247 E14.51387
G1 X158.666 Y115.388 E14.64541
G1 X156.744 Y120.285 E14.77664
G1 X154.112 Y124.845 E14.90798
G1 X150.828 Y128.963 E15.03937
G1 X146.963 Y132.548 E15.17087
G1 X142.615 Y135.514 E15.30216
G1 X137.874 Y137.796 E15.43342
G1 X132.846 Y139.348 E15.56468
G1 X127.607 Y140.136 E15.69684
G1 X122.372 Y140.135 E15.82742
G1 X117.153 Y139.349 E15.95908
G1 X112.126 Y137.796 E16.09033
G1 X107.384 Y135.514 E16.2216
G1 X103.037 Y132.548 E16.35287
G1 X99.172 Y128.963 E16.48438
G1 X95.888 Y124.845 E16.61576
G1 X93.256 Y120.285 E16.7471
G1 X91.334 Y115.388 E16.87833
G1 X90.161 Y110.247 E17.00987
G1 X89.766 Y105 E17.14113
G1 X90.161 Y99.753 E17.27238
G1 X91.334 Y94.612 E17.40392
G1 X93.257 Y89.714 E17.53518
G1 X95.888 Y85.155 E17.66649
G1 X99.172 Y81.037 E17.79788
G0 F3600 X99.245 Y81.105
G0 X100.293 Y84.7
G0 X100.309 Y84.798
G1 F1800 X99.659 Y84.993 E17.8148
G1 X99.081 Y85.353 E17.83179
G1 X98.615 Y85.846 E17.84871
G1 X98.295 Y86.446 E17.86567
G1 X98.138 Y87.108 E17.88265
G1 X98.161 Y87.788 E17.89962
G1 X98.356 Y88.438 E17.91655
G1 X98.716 Y89.016 E17.93353
G1 X99.209 Y89.482 E17.95046
G1 X99.809 Y89.802 E17.96742
G1 X100.471 Y89.959 E17.98439
G1 X101.151 Y89.936 E18.00136
G1 X101.801 Y89.741 E18.01829
G1 X102.379 Y89.381 E18.03528
G1 X102.845 Y88.888 E18.0522
G1 X103.165 Y88.288 E18.06916
G1 X103.322 Y87.626 E18.08613
G1 X103.299 Y86.946 E18.10311
G1 X103.104 Y86.295 E18.12006
G1 X102.744 Y85.717 E18.13704
G1 X102.251 Y85.252 E18.15395
G1 X101.651 Y84.932 E18.17091
G1 X100.989 Y84.775 E18.18788
G1 X100.309 Y84.798 E18.20486
G0 F3600 X100.293 Y84.7
G0 X99.643 Y84.957
G0 X99.056 Y85.323
G0 X98.583 Y85.823
G0 X98.258 Y86.432
G0 X98.099 Y87.105
G0 X98.122 Y87.794
G0 X98.419 Y90.319
G0 X98.385 Y90.412
G1 F1800 X97.211 Y90.152 E18.23485
G1 X96.01 Y90.205 E18.26484
G1 X94.864 Y90.566 E18.29481
G1 X93.85 Y91.212 E18.3248
G1 X93.038 Y92.099 E18.3548
G1 X92.482 Y93.165 E18.38479
G1 X92.222 Y94.338 E18.41476
G1 X92.274 Y95.539 E18.44475
G1 X92.635 Y96.686 E18.47475
G1 X93.282 Y97.7 E18.50475
G1 X94.168 Y98.512 E18.53473
G1 X95.235 Y99.068 E18.56474
G1 X96.408 Y99.328 E18.59471
G1 X97.609 Y99.275 E18.6247
G1 X98.755 Y98.914 E18.65467
G1 X99.77 Y98.268 E18.68469
G1 X100.582 Y97.381 E18.71468
G1 X101.137 Y96.315 E18.74466
G1 X101.397 Y95.142 E18.77463
G1 X101.345 Y93.94 E18.80465
G1 X100.984 Y92.794 E18.83462
G1 X100.338 Y91.78 E18.86461
G1 X99.451 Y90.968 E18.89461
G1 X98.385 Y90.412 E18.9246
G0 F3600 X98.419 Y90.319
G0 X99.473 Y90.936
G0 X100.368 Y91.755
G0 X101.02 Y92.778
G0 X101.384 Y93.934
G0 X101.436 Y95.145
G0 X101.174 Y96.328
G0 X100.614 Y97.403
G0 X99.795 Y98.298
G0 X95.686 Y102.387
G0 X95.661 Y102.483
G1 F1800 X94.987 Y102.397 E18.94155
G1 X94.314 Y102.489 E18.95849
G1 X93.686 Y102.752 E18.97548
G1 X93.15 Y103.168 E18.9924
G1 X92.738 Y103.711 E19.0094
G1 X92.483 Y104.339 E19.02631
G1 X92.395 Y105.013 E19.04327
G1 X92.489 Y105.687 E19.06024
G1 X92.752 Y106.314 E19.0772
G1 X93.168 Y106.85 E19.09413
G1 X93.71 Y107.262 E19.11111
G1 X94.339 Y107.517 E19.12804
G1 X95.013 Y107.605 E19.145
G1 X95.688 Y107.511 E19.162
G1 X96.313 Y107.248 E19.17891
G1 X96.851 Y106.832 E19.19588
G1 X97.263 Y106.29 E19.21286
G1 X97.518 Y105.66 E19.22981
G1 X97.605 Y104.987 E19.24674
G1 X97.512 Y104.314 E19.26369
G1 X97.249 Y103.688 E19.28063
G1 X96.833 Y103.15 E19.29759
G1 X96.29 Y102.738 E19.31459
G1 X95.661 Y102.483 E19.33153
G0 F3600 X95.686 Y102.387
G0 X96.309 Y102.704
G0 X96.861 Y103.122
G0 X97.283 Y103.668
G0 X97.55 Y104.304
G0 X97.645 Y104.987
G0 X97.556 Y105.67
G0 X97.297 Y106.309
G0 X96.081 Y108.565
G0 X96.082 Y108.664
G1 F1800 X94.893 Y108.842 E19.36152
G1 X93.79 Y109.321 E19.39151
G1 X92.85 Y110.07 E19.42149
G1 X92.135 Y111.035 E19.45145
G1 X91.694 Y112.154 E19.48146
G1 X91.558 Y113.349 E19.51146
G1 X91.736 Y114.538 E19.54145
G1 X92.215 Y115.641 E19.57145
G1 X92.964 Y116.581 E19.60143
G1 X93.929 Y117.296 E19.63139
G1 X95.048 Y117.737 E19.66139
G1 X96.242 Y117.873 E19.69137
G1 X97.432 Y117.696 E19.72138
G1 X98.535 Y117.216 E19.75139
G1 X99.475 Y116.467 E19.78137
G1 X100.19 Y115.502 E19.81133
G1 X100.631 Y114.383 E19.84133
G1 X100.767 Y113.189 E19.87131
G1 X100.59 Y111.999 E19.90132
G1 X100.11 Y110.896 E19.93133
G1 X99.361 Y109.956 E19.96131
G1 X98.396 Y109.241 E19.99127
G1 X97.277 Y108.8 E20.02127
G1 X96.082 Y108.664 E20.05127
G0 F3600 X96.081 Y108.565
G0 X97.286 Y108.762
G0 X98.415 Y109.207
G0 X99.388 Y109.928
G0 X100.144 Y110.876
G0 X100.628 Y111.988
G0 X100.806 Y113.189
G0 X100.669 Y114.392
G0 X99.748 Y120.114
G0 X99.784 Y120.207
G1 F1800 X99.188 Y120.534 E20.06823
G1 X98.699 Y121.005 E20.08517
G1 X98.346 Y121.587 E20.10215
G1 X98.157 Y122.238 E20.11906
G1 X98.141 Y122.918 E20.13602
G1 X98.304 Y123.579 E20.15301
G1 X98.631 Y124.175 E20.16996
G1 X99.102 Y124.664 E20.1869
G1 X99.684 Y125.017 E20.20388
G1 X100.335 Y125.206 E20.22079
G1 X101.015 Y125.222 E20.23776
G1 X101.676 Y125.059 E20.25474
G1 X102.272 Y124.732 E20.2717
G1 X102.761 Y124.261 E20.28863
G1 X103.114 Y123.68 E20.30559
G1 X103.303 Y123.028 E20.32253
G1 X103.319 Y122.348 E20.33949
G1 X103.156 Y121.687 E20.35648
G1 X102.829 Y121.091 E20.37343
G1 X102.358 Y120.602 E20.39037
G1 X101.776 Y120.249 E20.40735
G1 X101.125 Y120.06 E20.42426
G1 X100.445 Y120.044 E20.44123
G1 X99.784 Y120.207 E20.45821
G0 F3600 X99.748 Y120.114
G0 X100.441 Y120.005
G0 X101.131 Y120.021
G0 X101.792 Y120.213
G0 X102.382 Y120.571
G0 X102.861 Y121.068
G0 X103.193 Y121.673
G0 X103.358 Y122.344
G0 X103.699 Y124.883
G0 X103.759 Y124.962
G1 F1800 X102.902 Y125.805 E20.4882
G1 X102.292 Y126.84 E20.51817
G1 X101.97 Y127.999 E20.54817
G1 X101.96 Y129.201 E20.57816
G1 X102.261 Y130.365 E20.60815
G1 X102.853 Y131.411 E20.63813
G1 X103.696 Y132.269 E20.66814
G1 X104.731 Y132.879 E20.6981
G1 X105.89 Y133.201 E20.72811
G1 X107.092 Y133.21 E20.7581
G1 X108.256 Y132.91 E20.78808
G1 X109.302 Y132.317 E20.81807
G1 X110.16 Y131.475 E20.84806
G1 X110.77 Y130.44 E20.87803
G1 X111.092 Y129.281 E20.90804
G1 X111.101 Y128.078 E20.93805
G1 X110.8 Y126.914 E20.96804
G1 X110.208 Y125.869 E20.998
G1 X109.366 Y125.011 E21.02798
G1 X108.331 Y124.401 E21.05795
G1 X107.171 Y124.079 E21.08798
G1 X105.969 Y124.07 E21.11797
G1 X104.805 Y124.37 E21.14795
G1 X103.759 Y124.962 E21.17794
G0 F3600 X103.699 Y124.883
G0 X104.791 Y124.333
G0 X105.965 Y124.031
G0 X107.176 Y124.04
G0 X108.346 Y124.365
G0 X109.39 Y124.98
G0 X110.239 Y125.845
G0 X110.837 Y126.9
G0 X113.454 Y132.07
G0 X113.538 Y132.124
G1 F1800 X113.25 Y132.74 E21.1949
G1 X113.13 Y133.408 E21.21183
G1 X113.186 Y134.086 E21.2288
G1 X113.417 Y134.726 E21.24577
G1 X113.805 Y135.283 E21.2627
G1 X114.323 Y135.723 E21.27966
G1 X114.939 Y136.011 E21.29662
G1 X115.606 Y136.131 E21.31353
G1 X116.285 Y136.075 E21.33052
G1 X116.925 Y135.844 E21.34749
G1 X117.482 Y135.456 E21.36443
G1 X117.922 Y134.938 E21.38138
G1 X118.21 Y134.322 E21.39834
G1 X118.33 Y133.655 E21.41525
G1 X118.274 Y132.976 E21.43225
G1 X118.043 Y132.336 E21.44922
G1 X117.655 Y131.779 E21.46615
G1 X117.137 Y131.339 E21.48311
G1 X116.521 Y131.051 E21.50007
G1 X115.854 Y130.931 E21.51697
G1 X115.175 Y130.987 E21.53397
G1 X114.535 Y131.218 E21.55094
G1 X113.978 Y131.606 E21.56788
G1 X113.538 Y132.124 E21.58483
G0 F3600 X113.454 Y132.07
G0 X113.952 Y131.577
G0 X114.517 Y131.183
G0 X115.167 Y130.948
G0 X115.855 Y130.892
G0 X131.572 Y133.686
G0 X131.671 Y133.681
G1 F1800 X131.798 Y134.347 E21.60174
