;FLAVOR:RepRap
;TIME:14365
;Filament used: 8.00951m
;Layer height: 0.1
;Generated with Cura_SteamEngine 2.5.0
G21 ; set units to millimeters
G90 ; use absolute positioning
M82 ; absolute extrusion mode
G28 W ; home all without mesh bed level
G80 ; mesh bed leveling
M104 S200 ; set extruder temp
M140 S60 ; set bed temp
M190 S60 ; wait for bed temp
M109 S200 ; wait for extruder temp
G92 E0.0 ; reset extruder distance position
G1 Y-3.0 F1000.0 ; go outside print area
G1 X60.0 E9.0 F1000.0 ; intro line
G1 X100.0 E21.5 F1000.0 ; intro line
G92 E0.0 ; reset extruder distance position
;LAYER_COUNT:200
;LAYER:0
M107
G0 F3600 X92.837 Y76.338 Z0.15
;TYPE:SKIRT
G1 F1800 X93.185 Y75.951 E0.01298
G1 X97.935 Y71.467 E0.17593
G1 X98.342 Y71.142 E0.18892
G1 X103.712 Y67.518 E0.35053
G1 X104.166 Y67.262 E0.36353
G1 X110.097 Y64.537 E0.52634
G1 X110.595 Y64.357 E0.53955
G1 X117.01 Y62.617 E0.70536
G1 X117.511 Y62.523 E0.71807
G1 X123.126 Y61.928 E0.85893
G1 X123.341 Y61.912 E0.8643
G1 X124.52 Y61.867 E0.89374
G1 X124.845 Y61.871 E0.90184
G1 X131.038 Y62.264 E1.05664
G1 X131.551 Y62.339 E1.06957
G1 X137.88 Y63.791 E1.23155
G1 X138.365 Y63.944 E1.24424
G1 X144.226 Y66.317 E1.40197
G1 X144.69 Y66.55 E1.41492
G1 X150.263 Y69.945 E1.5777
G1 X150.683 Y70.251 E1.59067
G1 X155.587 Y74.464 E1.75194
G1 X155.949 Y74.829 E1.76477
G1 X159.734 Y79.319 E1.91126
G1 X159.885 Y79.513 E1.91739
G1 X160.589 Y80.492 E1.94747
G1 X160.751 Y80.74 E1.95486
G1 X163.833 Y85.992 E2.10676
G1 X164.055 Y86.451 E2.11948
G1 X166.363 Y92.378 E2.27814
G1 X166.512 Y92.877 E2.29113
G1 X167.866 Y99.277 E2.45432
G1 X167.934 Y100.013 E2.47275
G1 X167.816 Y105.102 E2.59973
G1 X167.934 Y109.922 E2.72001
G1 X167.868 Y110.65 E2.73824
G1 X166.665 Y116.449 E2.88598
G1 X166.636 Y116.579 E2.8893
G1 X166.425 Y117.419 E2.9109
G1 X166.3 Y117.809 E2.92112
G1 X163.977 Y123.725 E3.07966
G1 X163.749 Y124.189 E3.09256
G1 X160.439 Y129.763 E3.25427
G1 X160.141 Y130.183 E3.26712
G1 X156.423 Y134.623 E3.41158
G1 X156.266 Y134.798 E3.41744
G1 X155.369 Y135.722 E3.44957
G1 X155.152 Y135.926 E3.457
G1 X150.641 Y139.78 E3.605
G1 X150.224 Y140.081 E3.61783
G1 X144.675 Y143.454 E3.77982
G1 X144.216 Y143.685 E3.79263
G1 X138.846 Y145.863 E3.93719
G1 X138.633 Y145.941 E3.94285
G1 X137.453 Y146.325 E3.9738
G1 X137.162 Y146.405 E3.98133
G1 X132.034 Y147.553 E4.11241
G1 X131.81 Y147.595 E4.1181
G1 X130.538 Y147.786 E4.15018
G1 X130.231 Y147.817 E4.15788
G1 X124.148 Y148.136 E4.30983
G1 X123.64 Y148.122 E4.32251
G1 X117.326 Y147.447 E4.48091
G1 X116.81 Y147.348 E4.49402
G1 X110.416 Y145.572 E4.65955
G1 X109.934 Y145.396 E4.67235
G1 X104.172 Y142.743 E4.83059
G1 X103.709 Y142.481 E4.84386
G1 X98.164 Y138.706 E5.01119
G1 X97.766 Y138.386 E5.02393
G1 X93.19 Y134.057 E5.18107
G1 X92.844 Y133.672 E5.19398
G1 X88.914 Y128.515 E5.35572
G1 X88.629 Y128.068 E5.36894
G1 X85.504 Y122.145 E5.536
G1 X85.297 Y121.661 E5.54913
G1 X83.242 Y115.474 E5.71175
G1 X83.121 Y114.979 E5.72446
G1 X82.105 Y108.732 E5.88234
G1 X82.063 Y108.217 E5.89523
G1 X82.065 Y101.765 E6.05618
G1 X82.106 Y101.254 E6.06897
G1 X83.03 Y95.554 E6.21301
G1 X83.076 Y95.326 E6.21881
G1 X83.376 Y94.064 E6.25117
G1 X83.463 Y93.764 E6.25896
G1 X85.449 Y87.982 E6.41147
G1 X85.651 Y87.517 E6.42411
G1 X88.635 Y81.919 E6.58235
G1 X88.914 Y81.484 E6.59525
G1 X92.837 Y76.338 E6.75666
G1 F2100 E5.95666
G0 F3600 X94.822 Y77.903
G0 X95.842 Y78.68
G0 X95.902 Y78.733
G0 X95.828 Y78.667
;TYPE:WALL-INNER
G1 F2100 E6.75666
G1 F1800 X100.487 Y74.268 E6.9165
G1 X105.806 Y70.679 E7.07656
G1 X111.623 Y68.006 E7.23625
G1 X117.804 Y66.309 E7.39615
G1 X124.178 Y65.639 E7.55602
G1 X130.573 Y66.01 E7.71581
G1 X136.823 Y67.415 E7.87561
G1 X142.761 Y69.814 E8.03537
G1 X148.24 Y73.149 E8.19537
G1 X153.099 Y77.324 E8.35518
G1 X157.217 Y82.23 E8.51495
G1 X160.483 Y87.742 E8.67478
G1 X162.816 Y93.713 E8.83469
G1 X164.143 Y99.945 E8.99363
G1 X164.144 Y100.036 E8.9959
G1 X164.129 Y100.111 E8.99781
G1 X164.091 Y100.194 E9.00009
G1 X164.043 Y100.257 E9.00206
G1 X163.972 Y100.319 E9.00441
G1 X163.905 Y100.356 E9.00632
G1 X163.788 Y100.391 E9.00937
G1 X163.691 Y100.4 E9.0118
G1 X149.996 Y100.4 E9.35342
G1 X149.996 Y100.421 E9.35395
G1 X139.949 Y100.4 E9.60457
G1 X138.776 Y97.553 E9.68138
G1 X138.678 Y97.352 E9.68696
G1 X136.564 Y94.455 E9.77642
G1 X136.45 Y94.323 E9.78077
G1 X133.714 Y92.016 E9.87004
G1 X133.585 Y91.928 E9.87394
G1 X133.35 Y91.805 E9.88056
G1 X129.784 Y90.037 E9.97984
G1 X129.496 Y89.894 E9.98786
G1 X129.496 Y90.215 E9.99247
G1 X129.496 Y90.216 E9.99249
G1 X129.496 Y102.9 E10.3089
G1 X125.056 Y102.9 E10.41965
G1 X124.553 Y102.967 E10.43231
G1 X124.045 Y103.176 E10.44601
G1 X123.608 Y103.512 E10.45976
G1 X123.274 Y103.947 E10.47344
G1 X123.063 Y104.456 E10.48719
G1 X122.992 Y105 E10.50087
G1 X123.063 Y105.544 E10.51456
G1 X123.274 Y106.053 E10.5283
G1 X123.608 Y106.488 E10.54199
G1 X124.045 Y106.824 E10.55574
G1 X124.553 Y107.033 E10.56944
G1 X125.056 Y107.1 E10.5821
G1 X129.496 Y107.1 E10.69285
G1 X129.496 Y119.784 E11.00926
G1 X129.496 Y119.785 E11.00928
G1 X129.496 Y120.106 E11.01729
G1 X129.784 Y119.963 E11.0219
G1 X133.355 Y118.193 E11.12132
G1 X133.625 Y118.045 E11.129
G1 X133.743 Y117.963 E11.13259
G1 X136.468 Y115.664 E11.22152
G1 X136.579 Y115.529 E11.22588
G1 X138.683 Y112.644 E11.31495
G1 X138.833 Y112.318 E11.3239
G1 X139.949 Y109.6 E11.3972
G1 X163.69 Y109.6 E11.98942
G1 X163.812 Y109.612 E11.99248
G1 X163.891 Y109.637 E11.99454
G1 X163.983 Y109.689 E11.99718
G1 X164.043 Y109.741 E11.99916
G1 X164.092 Y109.808 E12.00123
G1 X164.126 Y109.883 E12.00329
G1 X164.143 Y109.982 E12.00579
G1 X164.142 Y110.06 E12.00774
G1 X162.807 Y116.323 E12.16748
G1 X160.473 Y122.282 E12.32712
G1 X157.199 Y127.795 E12.48707
G1 X153.078 Y132.698 E12.64684
G1 X148.214 Y136.869 E12.80667
G1 X142.732 Y140.199 E12.96667
G1 X136.791 Y142.594 E13.12646
G1 X130.543 Y143.993 E13.28618
G1 X124.147 Y144.358 E13.44599
G1 X117.774 Y143.683 E13.60585
G1 X111.62 Y141.993 E13.76505
G1 X105.808 Y139.324 E13.92458
G1 X100.486 Y135.733 E14.08474
G1 X95.827 Y131.334 E14.24457
G1 X91.949 Y126.246 E14.40416
G1 X88.94 Y120.583 E14.56412
G1 X86.89 Y114.507 E14.72409
G1 X85.854 Y108.188 E14.88382
G1 X85.855 Y101.814 E15.04282
G1 X86.891 Y95.487 E15.20275
G1 X88.938 Y89.423 E15.3624
G1 X91.95 Y83.755 E15.52251
G1 X95.828 Y78.667 E15.6821
G0 F3600 X95.533 Y78.395
;TYPE:WALL-OUTER
G1 F1800 X100.236 Y73.954 E15.84345
G1 X105.604 Y70.332 E16.00499
G1 X111.49 Y67.627 E16.16658
G1 X117.729 Y65.914 E16.32797
G1 X124.165 Y65.238 E16.4894
G1 X130.63 Y65.613 E16.65094
G1 X136.945 Y67.033 E16.8124
G1 X142.942 Y69.455 E16.97374
G1 X148.474 Y72.823 E17.1353
G1 X153.383 Y77.041 E17.29675
G1 X157.545 Y82 E17.45825
G1 X160.846 Y87.569 E17.61974
G1 X163.199 Y93.593 E17.78106
G1 X164.542 Y99.901 E17.94194
G1 X164.545 Y100.071 E17.94618
G1 X164.51 Y100.238 E17.95044
G1 X164.438 Y100.398 E17.95482
G1 X164.336 Y100.533 E17.95904
G1 X164.206 Y100.647 E17.96335
G1 X164.057 Y100.729 E17.96759
G1 X163.866 Y100.785 E17.97256
G1 X163.708 Y100.8 E17.97652
G1 X150.396 Y100.8 E18.30859
G1 X150.396 Y100.841 E18.30961
G1 X149.796 Y100.854 E18.32458
G1 X149.796 Y100.82 E18.32543
G1 X140.396 Y100.8 E18.55991
G1 X140.396 Y100.837 E18.56084
G1 X139.796 Y100.838 E18.5758
G1 X139.796 Y100.8 E18.57675
G1 X139.681 Y100.8 E18.57962
G1 X138.411 Y97.717 E18.66279
G1 X138.334 Y97.559 E18.66718
G1 X136.251 Y94.704 E18.75534
G1 X136.168 Y94.608 E18.7585
G1 X133.472 Y92.335 E18.84647
G1 X133.379 Y92.272 E18.84927
G1 X133.168 Y92.161 E18.85522
G1 X130.184 Y90.682 E18.93829
G1 X129.896 Y90.539 E18.94632
G1 X129.896 Y90.86 E18.95092
G1 X129.896 Y90.861 E18.95094
G1 X129.896 Y103.3 E19.26124
G1 X125.083 Y103.3 E19.3813
G1 X124.657 Y103.357 E19.39202
G1 X124.246 Y103.526 E19.4031
G1 X123.893 Y103.797 E19.4142
G1 X123.623 Y104.149 E19.42527
G1 X123.453 Y104.56 E19.43636
G1 X123.395 Y105 E19.44744
G1 X123.453 Y105.44 E19.45851
G1 X123.623 Y105.851 E19.4696
G1 X123.893 Y106.203 E19.48067
G1 X124.246 Y106.474 E19.49177
G1 X124.657 Y106.643 E19.50285
G1 X125.083 Y106.7 E19.51358
G1 X129.896 Y106.7 E19.63364
G1 X129.896 Y119.139 E19.94393
G1 X129.896 Y119.14 E19.94395
G1 X129.896 Y119.461 E19.95196
G1 X130.184 Y119.318 E19.95657
G1 X133.17 Y117.838 E20.0397
G1 X133.414 Y117.704 E20.04665
G1 X133.499 Y117.645 E20.04923
G1 X136.182 Y115.382 E20.13679
G1 X136.262 Y115.284 E20.13994
G1 X138.336 Y112.441 E20.22773
G1 X138.466 Y112.158 E20.23549
G1 X139.681 Y109.2 E20.31526
G1 X144.796 Y109.2 E20.44286
G1 X144.796 Y109.163 E20.44378
G1 X145.396 Y109.162 E20.45875
G1 X145.396 Y109.2 E20.4597
G1 X154.796 Y109.2 E20.69418
G1 X154.796 Y109.163 E20.6951
G1 X155.396 Y109.162 E20.71007
G1 X155.396 Y109.2 E20.71102
G1 X163.708 Y109.2 E20.91836
G1 X163.894 Y109.218 E20.92302
G1 X164.053 Y109.269 E20.92719
G1 X164.213 Y109.359 E20.93177
G1 X164.339 Y109.469 E20.93594
G1 X164.44 Y109.606 E20.94019
G1 X164.511 Y109.764 E20.94451
G1 X164.544 Y109.95 E20.94922
G1 X164.541 Y110.104 E20.95306
G1 X163.191 Y116.438 E21.11461
G1 X160.833 Y122.46 E21.27594
G1 X157.527 Y128.026 E21.43743
G1 X153.361 Y132.982 E21.59893
G1 X148.448 Y137.195 E21.76038
G1 X142.913 Y140.558 E21.92193
G1 X136.914 Y142.976 E22.08328
G1 X130.598 Y144.39 E22.24473
G1 X124.134 Y144.759 E22.40624
G1 X117.699 Y144.078 E22.56766
G1 X111.487 Y142.372 E22.72835
G1 X105.606 Y139.671 E22.88979
G1 X100.235 Y136.047 E23.05142
G1 X95.532 Y131.606 E23.21277
G1 X91.61 Y126.461 E23.37415
G1 X88.571 Y120.741 E23.53572
G1 X86.5 Y114.602 E23.69734
G1 X85.454 Y108.222 E23.85862
G1 X85.455 Y101.779 E24.01934
G1 X86.501 Y95.392 E24.18078
G1 X88.569 Y89.265 E24.34209
G1 X91.611 Y83.54 E24.50381
G1 X95.533 Y78.395 E24.66519
G0 F3600 X95.678 Y78.258
G0 X96.147 Y78.611
;TYPE:SKIN
G1 F1800 X122.85 Y105.314 E25.60721
G1 X122.92 Y105.384
G0 F3600 X122.843 Y104.741
G1 F1800 X96.438 Y78.336 E26.53872
G1 X96.368 Y78.266
G0 F3600 X96.729 Y78.061
G1 F1800 X122.942 Y104.274 E27.46346
G1 X123.012 Y104.344
G0 F3600 X123.107 Y103.874
G1 F1800 X97.02 Y77.787 E28.38375
G1 X96.95 Y77.717
G0 F3600 X97.311 Y77.512
G1 F1800 X123.349 Y103.55 E29.30231
G1 X123.419 Y103.62
G0 F3600 X123.63 Y103.265
G1 F1800 X97.602 Y77.237 E30.22051
G1 X97.532 Y77.167
G0 F3600 X97.893 Y76.962
G1 F1800 X123.95 Y103.02 E31.13976
G1 X124.02 Y103.09
G0 F3600 X124.35 Y102.854
G1 F1800 X98.184 Y76.688 E32.06284
G1 X98.114 Y76.618
G0 F3600 X98.475 Y76.413
G1 F1800 X124.812 Y102.75 E32.99195
G1 X124.882 Y102.82
G0 F3600 X125.347 Y102.719
G1 F1800 X98.765 Y76.138 E33.92968
G1 X98.695 Y76.068
G0 F3600 X99.057 Y75.864
G1 F1800 X125.913 Y102.719 E34.87708
G1 X125.983 Y102.789
G0 F3600 X126.478 Y102.719
G1 F1800 X99.347 Y75.589 E35.83418
G1 X99.277 Y75.519
G0 F3600 X99.639 Y75.314
G1 F1800 X127.044 Y102.719 E36.80097
G1 X127.114 Y102.789
G0 F3600 X127.61 Y102.719
G1 F1800 X99.929 Y75.039 E37.77747
G1 X99.859 Y74.969
G0 F3600 X100.221 Y74.765
G1 F1800 X128.175 Y102.719 E38.76363
G1 X128.245 Y102.789
G0 F3600 X128.741 Y102.719
G1 F1800 X100.511 Y74.49 E39.7595
G1 X100.441 Y74.42
G0 F3600 X100.836 Y74.249
G1 F1800 X129.307 Y102.719 E40.76387
G1 X129.377 Y102.789
G0 F3600 X129.315 Y102.162
G1 F1800 X101.174 Y74.021 E41.75662
G1 X101.104 Y73.951
G0 F3600 X101.511 Y73.792
G1 F1800 X129.315 Y101.597 E42.7375
G1 X129.385 Y101.667
G0 F3600 X129.315 Y101.031
G1 F1800 X101.849 Y73.565 E43.70644
G1 X101.779 Y73.495
G0 F3600 X102.187 Y73.337
G1 F1800 X129.315 Y100.465 E44.66345
G1 X129.385 Y100.535
G0 F3600 X129.315 Y99.9
G1 F1800 X102.525 Y73.109 E45.60856
G1 X102.455 Y73.039
G0 F3600 X102.862 Y72.881
G1 F1800 X129.315 Y99.334 E46.54176
G1 X129.385 Y99.404
G0 F3600 X129.315 Y98.768
G1 F1800 X103.2 Y72.653 E47.46304
G1 X103.13 Y72.583
G0 F3600 X103.538 Y72.426
G1 F1800 X129.315 Y98.202 E48.37237
G1 X129.385 Y98.272
G0 F3600 X129.315 Y97.637
G1 F1800 X103.876 Y72.197 E49.26982
G1 X103.806 Y72.127
G0 F3600 X104.214 Y71.97
G1 F1800 X129.315 Y97.071 E50.15533
G1 X129.385 Y97.141
G0 F3600 X129.315 Y96.505
G1 F1800 X104.552 Y71.742 E51.02891
G1 X104.482 Y71.672
G0 F3600 X104.89 Y71.514
G1 F1800 X129.315 Y95.94 E51.89058
G1 X129.385 Y96.01
G0 F3600 X129.315 Y95.374
G1 F1800 X105.227 Y71.286 E52.74035
G1 X105.157 Y71.216
G0 F3600 X105.565 Y71.058
G1 F1800 X129.315 Y94.808 E53.5782
G1 X129.385 Y94.878
G0 F3600 X129.315 Y94.243
G1 F1800 X105.904 Y70.832 E54.40408
G1 X105.834 Y70.762
G0 F3600 X106.292 Y70.654
G1 F1800 X129.315 Y93.677 E55.21628
G1 X129.385 Y93.747
G0 F3600 X129.315 Y93.111
G1 F1800 X106.679 Y70.475 E56.01483
G1 X106.609 Y70.405
G0 F3600 X107.067 Y70.297
G1 F1800 X129.315 Y92.546 E56.7997
G1 X129.385 Y92.616
G0 F3600 X129.315 Y91.98
G1 F1800 X107.454 Y70.119 E57.57091
G1 X107.384 Y70.049
G0 F3600 X107.842 Y69.941
G1 F1800 X129.315 Y91.414 E58.32843
G1 X129.385 Y91.484
G0 F3600 X129.315 Y90.849
G1 F1800 X108.229 Y69.763 E59.07229
G1 X108.159 Y69.693
G0 F3600 X108.617 Y69.585
G1 F1800 X129.315 Y90.283 E59.80247
G1 X129.385 Y90.353
G0 F3600 X129.315 Y89.717
G1 F1800 X109.005 Y69.407 E60.51896
G1 X108.935 Y69.337
G0 F3600 X109.392 Y69.229
G1 F1800 X130.212 Y90.048 E61.25343
G1 X130.282 Y90.118
G0 F3600 X131.334 Y90.605
G1 F1800 X109.78 Y69.051 E62.0138
G1 X109.71 Y68.981
G0 F3600 X110.167 Y68.872
G1 F1800 X132.457 Y91.162 E62.80014
G1 X132.527 Y91.232
G0 F3600 X133.586 Y91.725
G1 F1800 X110.555 Y68.694 E63.61262
G1 X110.485 Y68.624
G0 F3600 X110.943 Y68.517
G1 F1800 X142.651 Y100.225 E64.73121
G1 X142.721 Y100.295
G0 F3600 X143.218 Y100.226
G1 F1800 X111.331 Y68.339 E65.85611
G1 X111.261 Y68.269
G0 F3600 X111.722 Y68.165
G1 F1800 X143.785 Y100.227 E66.9872
G1 X143.855 Y100.297
G0 F3600 X144.352 Y100.228
G1 F1800 X112.166 Y68.043 E68.12263
G1 X112.096 Y67.973
G0 F3600 X112.61 Y67.921
G1 F1800 X144.919 Y100.23 E69.26242
G1 X144.989 Y100.3
G0 F3600 X145.486 Y100.231
G1 F1800 X113.054 Y67.799 E70.40654
G1 X112.984 Y67.729
G0 F3600 X113.498 Y67.677
G1 F1800 X146.053 Y100.233 E71.55503
G1 X146.123 Y100.303
G0 F3600 X146.62 Y100.233
G1 F1800 X113.942 Y67.556 E72.70781
G1 X113.872 Y67.486
G0 F3600 X114.385 Y67.433
G1 F1800 X147.187 Y100.235 E73.86499
G1 X147.257 Y100.305
G0 F3600 X147.754 Y100.236
G1 F1800 X114.829 Y67.312 E75.02649
G1 X114.759 Y67.242
G0 F3600 X115.273 Y67.19
G1 F1800 X148.321 Y100.238 E76.19235
G1 X148.391 Y100.308
G0 F3600 X148.888 Y100.239
G1 F1800 X115.717 Y67.068 E77.36255
G1 X115.647 Y66.998
G0 F3600 X116.161 Y66.946
G1 F1800 X149.454 Y100.24 E78.53706
G1 X149.524 Y100.31
G0 F3600 X150 Y100.22
G1 F1800 X116.605 Y66.825 E79.71516
G1 X116.535 Y66.755
G0 F3600 X117.048 Y66.702
G1 F1800 X150.566 Y100.22 E80.8976
G1 X150.636 Y100.29
G0 F3600 X151.132 Y100.22
G1 F1800 X117.492 Y66.581 E82.08433
G1 X117.422 Y66.511
G0 F3600 X117.951 Y66.474
G1 F1800 X151.697 Y100.22 E83.27481
G1 X151.767 Y100.29
G0 F3600 X152.263 Y100.22
G1 F1800 X118.463 Y66.42 E84.46719
G1 X118.393 Y66.35
G0 F3600 X118.975 Y66.366
G1 F1800 X152.829 Y100.22 E85.66148
G1 X152.899 Y100.29
G0 F3600 X153.394 Y100.22
G1 F1800 X119.486 Y66.312 E86.85768
G1 X119.416 Y66.242
G0 F3600 X119.998 Y66.258
G1 F1800 X153.96 Y100.22 E88.05578
G1 X154.03 Y100.29
G0 F3600 X154.526 Y100.22
G1 F1800 X120.51 Y66.204 E89.25579
G1 X120.44 Y66.134
G0 F3600 X121.022 Y66.151
G1 F1800 X155.091 Y100.22 E90.45766
G1 X155.161 Y100.29
G0 F3600 X155.657 Y100.22
G1 F1800 X121.534 Y66.097 E91.66144
G1 X121.464 Y66.027
G0 F3600 X122.046 Y66.043
G1 F1800 X156.223 Y100.22 E92.86713
G1 X156.293 Y100.29
G0 F3600 X156.788 Y100.22
G1 F1800 X122.558 Y65.99 E94.07469
G1 X122.488 Y65.92
G0 F3600 X123.07 Y65.936
G1 F1800 X157.354 Y100.22 E95.28415
G1 X157.424 Y100.29
G0 F3600 X157.92 Y100.22
G1 F1800 X123.582 Y65.882 E96.49551
G1 X123.512 Y65.812
G0 F3600 X124.094 Y65.828
G1 F1800 X158.485 Y100.22 E97.70877
G1 X158.555 Y100.29
G0 F3600 X159.051 Y100.22
G1 F1800 X124.68 Y65.849 E98.9213
G1 X124.61 Y65.779
G0 F3600 X125.28 Y65.883
G1 F1800 X159.617 Y100.22 E100.13263
G1 X159.687 Y100.29
G0 F3600 X160.183 Y100.22
G1 F1800 X125.881 Y65.918 E101.34272
G1 X125.811 Y65.848
G0 F3600 X126.481 Y65.953
G1 F1800 X160.748 Y100.22 E102.55158
G1 X160.818 Y100.29
G0 F3600 X161.314 Y100.22
G1 F1800 X127.082 Y65.988 E103.75921
G1 X127.012 Y65.918
